.local/share/icons/Gruvbox-Plus-Dark/apps/16/vncviewer.svg

<svg width="16" height="16" version="1.1" xmlns="http://www.w3.org/2000/svg">
  <defs>
    <style id="current-color-scheme" type="text/css">.ColorScheme-Text { color:#ebdbb2; } .ColorScheme-Highlight { color:#458588; }</style>
  </defs>
  <path class="ColorScheme-Text" d="m0 1.557s2.411 8.039 3.639 12.05c0.128 0.481 0.565 0.838 1.087 0.838 0.495 0 0.91-0.32 1.061-0.764 1.233-4.034 3.663-12.12 3.663-12.12h-1.217l-3.507 11.72-3.508-11.72zm13.18 0c-1.557 0-2.819 1.262-2.819 2.819v2.819h1.208v-2.819c0-0.904 0.707-1.611 1.611-1.611s1.611 0.707 1.611 1.611v2.819h1.208v-2.819c0-1.557-1.262-2.819-2.819-2.819zm0 7.248c-1.557 0-2.819 1.263-2.819 2.819 0 1.557 1.262 2.819 2.819 2.819h2.819v-1.208h-2.819c-0.904 0-1.611-0.707-1.611-1.611s0.707-1.61 1.611-1.61h2.819v-1.209z" fill="currentColor"/>
</svg>

<svg xmlns="http://www.w3.org/2000/svg" style="isolation:isolate" width="16" height="16" viewBox="0 0 16 16">
 <defs>
  <style id="current-color-scheme" type="text/css">
   .ColorScheme-Text { color:#ebdbb2; } .ColorScheme-Highlight { color:#458588; }
  </style>
  <linearGradient id="arrongin" x1="0%" x2="0%" y1="0%" y2="100%">
   <stop offset="0%" style="stop-color:#d79921; stop-opacity:1"/>
   <stop offset="100%" style="stop-color:#b57614; stop-opacity:1"/>
  </linearGradient>
  <linearGradient id="aurora" x1="0%" x2="0%" y1="0%" y2="100%">
   <stop offset="0%" style="stop-color:#83a598; stop-opacity:1"/>
   <stop offset="100%" style="stop-color:#b16286; stop-opacity:1"/>
  </linearGradient>
  <linearGradient id="fitdance" x1="0%" x2="0%" y1="0%" y2="100%">
   <stop offset="0%" style="stop-color:#8ec07c; stop-opacity:1"/>
   <stop offset="100%" style="stop-color:#458588; stop-opacity:1"/>
  </linearGradient>
  <linearGradient id="oomox" x1="0%" x2="0%" y1="0%" y2="100%">
   <stop offset="0%" style="stop-color:#458588; stop-opacity:1"/>
   <stop offset="100%" style="stop-color:#928374; stop-opacity:1"/>
  </linearGradient>
  <linearGradient id="rainblue" x1="0%" x2="0%" y1="0%" y2="100%">
   <stop offset="0%" style="stop-color:#b8bb26; stop-opacity:1"/>
   <stop offset="100%" style="stop-color:#076678; stop-opacity:1"/>
  </linearGradient>
  <linearGradient id="sunrise" x1="0%" x2="0%" y1="0%" y2="100%">
   <stop offset="0%" style="stop-color: #fe8019; stop-opacity:1"/>
   <stop offset="100%" style="stop-color: #fabd2f; stop-opacity:1"/>
  </linearGradient>
  <linearGradient id="telinkrin" x1="0%" x2="0%" y1="0%" y2="100%">
   <stop offset="0%" style="stop-color: #83a598; stop-opacity:1"/>
   <stop offset="100%" style="stop-color: #83a598; stop-opacity:1"/>
  </linearGradient>
  <linearGradient id="60spsycho" x1="0%" x2="0%" y1="0%" y2="100%">
   <stop offset="0%" style="stop-color: #fb4934; stop-opacity:1"/>
   <stop offset="25%" style="stop-color: #fabd2f; stop-opacity:1"/>
   <stop offset="50%" style="stop-color: #fe8019; stop-opacity:1"/>
   <stop offset="100%" style="stop-color: #689d6a; stop-opacity:1"/>
  </linearGradient>
  <linearGradient id="90ssummer" x1="0%" x2="0%" y1="0%" y2="100%">
   <stop offset="0%" style="stop-color: #b16286; stop-opacity:1"/>
   <stop offset="20%" style="stop-color: #8ec07c; stop-opacity:1"/>
   <stop offset="50%" style="stop-color: #fabd2f; stop-opacity:1"/>
   <stop offset="100%" style="stop-color: #458588; stop-opacity:1"/>
  </linearGradient>
  <linearGradient id="cyberneon" x1="0%" x2="0%" y1="0%" y2="100%">
    <stop offset="0" style="stop-color:#83a598; stop-opacity:1"/>
    <stop offset="1" style="stop-color:#b16286; stop-opacity:1"/>
  </linearGradient>
 </defs>
 <path style="fill:currentColor" class="ColorScheme-Text" d="M 0 1.557 L 3.628 13.589 C 3.631 13.596 3.635 13.598 3.639 13.605 C 3.767 14.086 4.204 14.443 4.726 14.443 C 5.221 14.443 5.636 14.123 5.787 13.679 C 5.791 13.672 5.799 13.663 5.802 13.657 L 9.45 1.557 L 8.233 1.557 L 4.726 13.282 L 1.218 1.557 L 0 1.557 Z M 13.181 1.557 C 11.624 1.557 10.362 2.819 10.362 4.376 L 10.362 7.195 L 11.57 7.195 L 11.57 5.986 L 11.57 5.181 L 11.57 4.376 C 11.57 3.472 12.277 2.765 13.181 2.765 C 14.085 2.765 14.792 3.472 14.792 4.376 L 14.792 5.181 L 14.792 5.986 L 14.792 7.195 L 16 7.195 L 16 4.376 C 16 2.819 14.738 1.557 13.181 1.557 Z M 13.181 8.805 C 11.624 8.805 10.362 10.068 10.362 11.624 C 10.362 13.181 11.624 14.443 13.181 14.443 L 16 14.443 L 16 13.235 L 14.792 13.235 L 13.986 13.235 L 13.181 13.235 C 12.277 13.235 11.57 12.528 11.57 11.624 C 11.57 10.72 12.277 10.014 13.181 10.014 L 13.986 10.014 L 14.792 10.014 L 16 10.014 L 16 8.805 L 13.181 8.805 Z"/>
</svg>
